file/mixer.svg

<svg clip-rule="evenodd" fill-rule="evenodd" viewBox="0 0 560 400" xmlns="http://www.w3.org/2000/svg"><g fill-rule="nonzero" transform="matrix(.523743 0 0 .523743 99.802 147.426)"><path d="m244.098 58.648c-8.982.011-16.369 7.398-16.38 16.38v117.7c.005 2.346 1.934 4.275 4.28 4.28h24.2c2.35 0 4.285-1.93 4.29-4.28v-117.69c-.011-8.982-7.398-16.369-16.38-16.38m-87.67.11c-10 0-18.81 2.15-26.28 6.39-6.8 3.84-12.84 9.82-18 17.79-2.825-6.917-7.616-12.857-13.78-17.08-7.144-4.782-15.585-7.261-24.18-7.1-18.18 0-32.25 7.49-41.87 22.25-3.005-12.875-14.579-22.059-27.8-22.06h-4.15v133.78c.005 2.346 1.934 4.275 4.28 4.28h24.2c2.35 0 4.285-1.93 4.29-4.28v-71.36c0-10.47 2.5-19.11 7.42-25.67s11.1-9.69 19-9.69c16.56 0 24.61 10.6 24.61 32.39v74.33c.005 2.346 1.934 4.275 4.28 4.28h24.2c2.346-.005 4.275-1.934 4.28-4.28v-71.36c0-9.9 2.61-18.38 7.75-25.22s11.21-10.14 18.69-10.14c9 0 15.49 2.71 19.16 8 3.79 5.49 5.7 14.55 5.7 26.93v71.75c.005 2.346 1.934 4.275 4.28 4.28h24.34c2.346-.005 4.275-1.934 4.28-4.28v-78.8c0-19-3.84-33.1-11.42-41.85s-18.82-13.27-33.26-13.27m160.11 6.1c-3.093-4.144-7.971-6.59-13.142-6.59-4.086 0-8.028 1.527-11.048 4.28-6.33 5.75-6.76 15.61-1.66 22.47l32.86 44.14-33.1 44.46c-5.11 6.86-4.67 16.72 1.66 22.47 3.019 2.75 6.959 4.276 11.043 4.276 5.174 0 10.054-2.449 13.147-6.596l46.2-62.06c1.127-1.515 1.127-3.605 0-5.12z" fill="#fff" stroke="#000" stroke-width=".76"/><path d="m417.968 64.878c3.093-4.147 7.973-6.596 13.147-6.596 4.084 0 8.024 1.526 11.043 4.276 6.33 5.75 6.76 15.61 1.66 22.47l-32.86 44.14 33.1 44.46c5.11 6.86 4.67 16.72-1.66 22.47-3.019 2.75-6.959 4.276-11.043 4.276-5.174 0-10.054-2.449-13.147-6.596l-46.2-62.06c-1.127-1.515-1.127-3.605 0-5.12zm88.13 28.66c5.236-5.491 12.512-8.586 20.1-8.55 8.42 0 15 2.62 19.65 7.79 4.44 5 6.79 12.24 7 21.63h-57.31c1.65-8.46 5.2-15.47 10.57-20.87m53 78c-.977-1.294-2.691-1.81-4.22-1.27-6.813 2.317-13.964 3.489-21.16 3.47-12.09 0-21.48-3-27.91-9-6.14-5.73-9.66-14.14-10.46-25h75.56c8.015 0 14.61-6.595 14.61-14.61v-1.66c0-20.07-5.25-36-15.59-47.42s-25.08-17.25-43.73-17.25c-23.679-.182-45.492 13.165-56.11 34.33-5.56 10.72-8.39 23.41-8.39 37.7 0 21.61 5.7 38.76 16.95 51s27.36 18.47 47.81 18.47c9.14.042 18.251-1.012 27.14-3.14 4.981-1.162 9.843-2.79 14.52-4.86 1.496-.702 2.456-2.213 2.456-3.865 0-.925-.301-1.826-.856-2.565zm125.5-110.73c-4.073-1.127-9.763-1.41-17.07-.85l-1.1.21c-11.73 3.53-20.27 11.49-25.52 23.58-1.867-14.122-14.035-24.793-28.28-24.8h-4.16v133.79c.005 2.346 1.934 4.275 4.28 4.28h24.19c2.346-.005 4.275-1.934 4.28-4.28v-64.77c0-11.5 2.61-20.95 7.76-28.08s11.66-10.51 19.96-10.51c3.162.058 6.304.518 9.35 1.37 1.38.38 2.6.76 3.68 1.16.477.178.981.268 1.49.268 2.342 0 4.269-1.926 4.27-4.268v-22.95c-.056-1.901-1.317-3.568-3.13-4.14" fill="#1fbaed"/><path d="m226.548 17.928c0 9.628 7.922 17.55 17.55 17.55s17.55-7.922 17.55-17.55-7.922-17.55-17.55-17.55-17.55 7.922-17.55 17.55" fill="#fff" stroke="#000" stroke-width=".76"/></g></svg>

<?xml version="1.0" encoding="UTF-8" standalone="no"?>
<!DOCTYPE svg PUBLIC "-//W3C//DTD SVG 1.1//EN" "http://www.w3.org/Graphics/SVG/1.1/DTD/svg11.dtd">
<svg width="100%" height="100%" viewBox="0 0 560 400" version="1.1" xmlns="http://www.w3.org/2000/svg" xmlns:xlink="http://www.w3.org/1999/xlink" xml:space="preserve" xmlns:serif="http://www.serif.com/" style="fill-rule:evenodd;clip-rule:evenodd;">
    <g transform="matrix(0.523743,0,0,0.523743,99.802,147.426)">
        <path d="M244.098,58.648C235.116,58.659 227.729,66.046 227.718,75.028L227.718,192.728C227.723,195.074 229.652,197.003 231.998,197.008L256.198,197.008C258.548,197.008 260.483,195.078 260.488,192.728L260.488,75.038C260.477,66.056 253.09,58.669 244.108,58.658M156.438,58.768C146.438,58.768 137.628,60.918 130.158,65.158C123.358,68.998 117.318,74.978 112.158,82.948C109.333,76.031 104.542,70.091 98.378,65.868C91.234,61.086 82.793,58.607 74.198,58.768C56.018,58.768 41.948,66.258 32.328,81.018C29.323,68.143 17.749,58.959 4.528,58.958L0.378,58.958L0.378,192.738C0.383,195.084 2.312,197.013 4.658,197.018L28.858,197.018C31.208,197.018 33.143,195.088 33.148,192.738L33.148,121.378C33.148,110.908 35.648,102.268 40.568,95.708C45.488,89.148 51.668,86.018 59.568,86.018C76.128,86.018 84.178,96.618 84.178,118.408L84.178,192.738C84.183,195.084 86.112,197.013 88.458,197.018L112.658,197.018C115.004,197.013 116.933,195.084 116.938,192.738L116.938,121.378C116.938,111.478 119.548,102.998 124.688,96.158C129.828,89.318 135.898,86.018 143.378,86.018C152.378,86.018 158.868,88.728 162.538,94.018C166.328,99.508 168.238,108.568 168.238,120.948L168.238,192.698C168.243,195.044 170.172,196.973 172.518,196.978L196.858,196.978C199.204,196.973 201.133,195.044 201.138,192.698L201.138,113.898C201.138,94.898 197.298,80.798 189.718,72.048C182.138,63.298 170.898,58.778 156.458,58.778M316.568,64.878C313.475,60.734 308.597,58.288 303.426,58.288C299.34,58.288 295.398,59.815 292.378,62.568C286.048,68.318 285.618,78.178 290.718,85.038L323.578,129.178L290.478,173.638C285.368,180.498 285.808,190.358 292.138,196.108C295.157,198.858 299.097,200.384 303.181,200.384C308.355,200.384 313.235,197.935 316.328,193.788L362.528,131.728C363.655,130.213 363.655,128.123 362.528,126.608L316.568,64.878Z" style="fill:white;fill-rule:nonzero;stroke:black;stroke-width:0.76px;"/>
        <path d="M417.968,64.878C421.061,60.731 425.941,58.282 431.115,58.282C435.199,58.282 439.139,59.808 442.158,62.558C448.488,68.308 448.918,78.168 443.818,85.028L410.958,129.168L444.058,173.628C449.168,180.488 448.728,190.348 442.398,196.098C439.379,198.848 435.439,200.374 431.355,200.374C426.181,200.374 421.301,197.925 418.208,193.778L372.008,131.718C370.881,130.203 370.881,128.113 372.008,126.598L417.968,64.878ZM506.098,93.538C511.334,88.047 518.61,84.952 526.198,84.988C534.618,84.988 541.198,87.608 545.848,92.778C550.288,97.778 552.638,105.018 552.848,114.408L495.538,114.408C497.188,105.948 500.738,98.938 506.108,93.538M559.108,171.538C558.131,170.244 556.417,169.728 554.888,170.268C548.075,172.585 540.924,173.757 533.728,173.738C521.638,173.738 512.248,170.738 505.818,164.738C499.678,159.008 496.158,150.598 495.358,139.738L570.918,139.738C578.933,139.738 585.528,133.143 585.528,125.128L585.528,123.468C585.528,103.398 580.278,87.468 569.938,76.048C559.598,64.628 544.858,58.798 526.208,58.798C502.529,58.616 480.716,71.963 470.098,93.128C464.538,103.848 461.708,116.538 461.708,130.828C461.708,152.438 467.408,169.588 478.658,181.828C489.908,194.068 506.018,200.298 526.468,200.298C535.608,200.34 544.719,199.286 553.608,197.158C558.589,195.996 563.451,194.368 568.128,192.298C569.624,191.596 570.584,190.085 570.584,188.433C570.584,187.508 570.283,186.607 569.728,185.868L559.108,171.538ZM684.608,60.808C680.535,59.681 674.845,59.398 667.538,59.958L666.438,60.168C654.708,63.698 646.168,71.658 640.918,83.748C639.051,69.626 626.883,58.955 612.638,58.948L608.478,58.948L608.478,192.738C608.483,195.084 610.412,197.013 612.758,197.018L636.948,197.018C639.294,197.013 641.223,195.084 641.228,192.738L641.228,127.968C641.228,116.468 643.838,107.018 648.988,99.888C654.138,92.758 660.648,89.378 668.948,89.378C672.11,89.436 675.252,89.896 678.298,90.748C679.678,91.128 680.898,91.508 681.978,91.908C682.455,92.086 682.959,92.176 683.468,92.176C685.81,92.176 687.737,90.25 687.738,87.908L687.738,64.958C687.682,63.057 686.421,61.39 684.608,60.818" style="fill:rgb(31,186,237);fill-rule:nonzero;"/>
        <path d="M226.548,17.928C226.548,27.556 234.47,35.478 244.098,35.478C253.726,35.478 261.648,27.556 261.648,17.928C261.648,8.3 253.726,0.378 244.098,0.378C234.47,0.378 226.548,8.3 226.548,17.928" style="fill:white;fill-rule:nonzero;stroke:black;stroke-width:0.76px;"/>
    </g>
</svg>
